X: 1
T:Scartaglen Polka
R:polka
D:Davy Spillane: Atlantic Bridge
Z:id:hn-polka-11
M:2/4
L:1/8
K:G
G/A/ |\
"G"GD G>A | Bd "D7"de/f/ | "G"gB B/A/G/A/ | "D7"BA AB/A/ |\
"G"GD G>A | Bd "D7"de/f/ | "G"gB "D7"AB/A/ | "G"G2 G :|
|: G/A/ |\
"G"Bd g>f | "C"fe e/f/g/e/ | "G"dB B/A/G/A/ | "D7"BA AG/A/ |
"G"Bd g>f | "C"fe e/f/g/e/ | "G"dB "D7"AB/A/ | "G"G2 G :|
|: d |\
"G"gg "D7"ag/a/ | "G"b2 ba | "G"gg "Am"ag/a/ | "B7"b2 ba |
"Em"ge "C"e/f/g/e/ | "G"dB "C"g>e | "G"dB "D7"AB/A/ | "D"G2 G :|
